X: 107
T: Pollonesse #107
M: 3/4
L: 1/16
R: Pollonesse
K: F
Q: 110
F2CF A2FA c2Ac|f2cf agfe f4|d2dc B2BA G2F2|EGc=Bc4C4|
F2CF A2FA c2Ac|f2cf agfe f4|B4 Acef g3B|[cA][BG][AF][GE] F8:|
|:c2Gc e2ce g4|[c2A2][B2G2] [B2G2][A2F2] [A2F2][G2C2]|c2Gc e2ce g4|[B2G2][A2F2] [A2F2][G2C2] [G2C2][F2A,2]|
F2CF A2FA c2Ac|f2cf agfe f4|B4 Acef g3B|[cA][BG][AF][GE] F8:|

